X: 3
T: The Hag With The Money
R: jig
M: 6/8
L: 1/8
K:Dmix
|Adc A3|AGE G3|AdcA3|GEA GED|
Adc A3|AGE G3|AGE cde|dcA GED||
|ABc^ dcd|fed efd|ABc^ dcd|eag edc|
ABc^ dcd|fed efg|age cde|dcA GED||

